svg/color/hrs.svg

<?xml version="1.0" encoding="UTF-8" ?>
<!DOCTYPE svg PUBLIC "-//W3C//DTD SVG 1.1//EN" "http://www.w3.org/Graphics/SVG/1.1/DTD/svg11.dtd">
<svg width="250pt" height="250pt" viewBox="0 0 250 250" version="1.1" xmlns="http://www.w3.org/2000/svg">
<g id="#ffffffff">
<path fill="#ffffff" opacity="1.00" d=" M 0.00 0.00 L 250.00 0.00 L 250.00 250.00 L 0.00 250.00 L 0.00 0.00 M 90.71 29.51 C 69.42 36.91 50.98 51.90 39.00 70.96 C 26.43 91.07 21.08 115.73 24.83 139.19 C 28.90 168.56 47.04 195.45 72.45 210.62 C 92.17 222.69 116.18 227.45 139.03 224.02 C 142.05 223.49 145.98 223.78 147.67 220.64 C 155.04 209.56 159.95 196.43 159.76 182.99 C 159.88 167.88 153.62 153.31 144.60 141.41 C 141.68 137.68 138.76 133.80 134.91 130.98 C 134.59 131.13 133.96 131.44 133.65 131.59 C 127.42 140.15 123.46 150.16 121.24 160.47 C 121.00 160.58 120.51 160.78 120.26 160.89 C 106.56 137.96 97.43 110.90 101.31 83.95 C 104.50 60.80 117.32 39.62 134.99 24.56 C 132.44 23.60 129.68 23.69 127.00 23.67 C 114.69 23.41 102.30 25.32 90.71 29.51 M 153.26 28.30 C 149.15 34.65 147.68 42.51 147.15 49.98 C 146.10 56.11 147.52 62.26 147.87 68.38 C 150.21 79.80 155.44 90.50 161.77 100.23 C 167.56 109.48 172.91 119.06 176.83 129.27 C 181.92 141.15 183.61 154.16 184.28 166.96 C 183.53 173.59 182.90 180.32 180.65 186.64 C 177.46 195.87 171.89 204.14 165.17 211.16 C 162.14 214.09 158.80 216.70 156.12 219.96 C 167.08 216.74 176.92 210.63 186.20 204.10 C 200.19 193.15 211.06 178.43 217.92 162.08 C 225.88 141.79 227.34 119.02 221.80 97.94 C 218.69 88.39 215.03 78.89 209.52 70.44 C 198.52 53.28 182.38 39.42 163.58 31.50 C 160.24 30.17 156.88 28.63 153.26 28.30 Z" />
<path fill="#ffffff" opacity="1.00" d=" M 94.13 61.12 C 97.23 58.16 100.20 54.90 104.05 52.91 C 95.52 73.88 88.84 96.14 89.28 119.00 C 89.19 136.11 93.55 153.47 103.14 167.77 C 108.67 176.03 115.60 183.65 124.29 188.63 C 126.83 189.94 128.10 186.81 128.89 184.98 C 131.92 176.58 133.38 167.70 134.53 158.88 C 141.26 172.46 142.86 188.07 141.08 202.99 C 140.30 207.95 139.14 212.87 137.14 217.48 C 127.00 217.80 116.87 216.90 106.90 215.08 C 90.46 211.74 74.17 203.63 64.58 189.41 C 52.53 171.89 51.57 149.24 55.32 128.94 C 59.43 137.00 64.01 146.74 73.73 148.93 C 70.58 142.00 68.37 134.59 67.51 127.02 C 67.34 119.36 66.73 111.50 68.81 104.03 C 72.39 87.46 82.30 72.96 94.13 61.12 Z" />
</g>
<g id="#424242ff">
<path fill="#424242" opacity="1.00" d=" M 90.71 29.51 C 102.30 25.32 114.69 23.41 127.00 23.67 C 129.68 23.69 132.44 23.60 134.99 24.56 C 117.32 39.62 104.50 60.80 101.31 83.95 C 97.43 110.90 106.56 137.96 120.26 160.89 C 120.51 160.78 121.00 160.58 121.24 160.47 C 123.46 150.16 127.42 140.15 133.65 131.59 C 133.96 131.44 134.59 131.13 134.91 130.98 C 138.76 133.80 141.68 137.68 144.60 141.41 C 153.62 153.31 159.88 167.88 159.76 182.99 C 159.95 196.43 155.04 209.56 147.67 220.64 C 145.98 223.78 142.05 223.49 139.03 224.02 C 116.18 227.45 92.17 222.69 72.45 210.62 C 47.04 195.45 28.90 168.56 24.83 139.19 C 21.08 115.73 26.43 91.07 39.00 70.96 C 50.98 51.90 69.42 36.91 90.71 29.51 M 94.13 61.12 C 82.30 72.96 72.39 87.46 68.81 104.03 C 66.73 111.50 67.34 119.36 67.51 127.02 C 68.37 134.59 70.58 142.00 73.73 148.93 C 64.01 146.74 59.43 137.00 55.32 128.94 C 51.57 149.24 52.53 171.89 64.58 189.41 C 74.17 203.63 90.46 211.74 106.90 215.08 C 116.87 216.90 127.00 217.80 137.14 217.48 C 139.14 212.87 140.30 207.95 141.08 202.99 C 142.86 188.07 141.26 172.46 134.53 158.88 C 133.38 167.70 131.92 176.58 128.89 184.98 C 128.10 186.81 126.83 189.94 124.29 188.63 C 115.60 183.65 108.67 176.03 103.14 167.77 C 93.55 153.47 89.19 136.11 89.28 119.00 C 88.84 96.14 95.52 73.88 104.05 52.91 C 100.20 54.90 97.23 58.16 94.13 61.12 Z" />
</g>
<g id="#4fd7cdff">
<path fill="#4fd7cd" opacity="1.00" d=" M 153.26 28.30 C 156.88 28.63 160.24 30.17 163.58 31.50 C 182.38 39.42 198.52 53.28 209.52 70.44 C 215.03 78.89 218.69 88.39 221.80 97.94 C 227.34 119.02 225.88 141.79 217.92 162.08 C 211.06 178.43 200.19 193.15 186.20 204.10 C 176.92 210.63 167.08 216.74 156.12 219.96 C 158.80 216.70 162.14 214.09 165.17 211.16 C 171.89 204.14 177.46 195.87 180.65 186.64 C 182.90 180.32 183.53 173.59 184.28 166.96 C 183.61 154.16 181.92 141.15 176.83 129.27 C 172.91 119.06 167.56 109.48 161.77 100.23 C 155.44 90.50 150.21 79.80 147.87 68.38 C 147.52 62.26 146.10 56.11 147.15 49.98 C 147.68 42.51 149.15 34.65 153.26 28.30 Z" />
</g>
</svg>

<?xml version="1.0" encoding="utf-8"?>
<!-- Generator: Adobe Illustrator 26.0.3, SVG Export Plug-In . SVG Version: 6.00 Build 0)  -->
<svg version="1.1" id="Layer_1" xmlns="http://www.w3.org/2000/svg" xmlns:xlink="http://www.w3.org/1999/xlink" x="0px" y="0px"
	 viewBox="0 0 250 250" style="enable-background:new 0 0 250 250;" xml:space="preserve">
<style type="text/css">
	.st0{fill:#FFFFFF;}
	.st1{fill:#424242;}
	.st2{fill:#4FD7CD;}
</style>
<g id="_x23_ffffffff">
	<path class="st0" d="M94.1,61.1c3.1-3,6.1-6.2,9.9-8.2c-8.5,21-15.2,43.2-14.8,66.1c-0.1,17.1,4.3,34.5,13.9,48.8
		c5.5,8.3,12.5,15.9,21.2,20.9c2.5,1.3,3.8-1.8,4.6-3.7c3-8.4,4.5-17.3,5.6-26.1c6.7,13.6,8.3,29.2,6.6,44.1
		c-0.8,5-1.9,9.9-3.9,14.5c-10.1,0.3-20.3-0.6-30.2-2.4c-16.4-3.3-32.7-11.4-42.3-25.7c-12.1-17.5-13-40.2-9.3-60.5
		c4.1,8.1,8.7,17.8,18.4,20c-3.2-6.9-5.4-14.3-6.2-21.9c-0.2-7.7-0.8-15.5,1.3-23C72.4,87.5,82.3,73,94.1,61.1z"/>
</g>
<g id="_x23_424242ff">
	<path class="st1" d="M90.7,29.5c11.6-4.2,24-6.1,36.3-5.8c2.7,0,5.4-0.1,8,0.9c-17.7,15.1-30.5,36.2-33.7,59.4
		c-3.9,27,5.2,54,19,76.9c0.2-0.1,0.7-0.3,1-0.4c2.2-10.3,6.2-20.3,12.4-28.9c0.3-0.1,0.9-0.5,1.3-0.6c3.8,2.8,6.8,6.7,9.7,10.4
		c9,11.9,15.3,26.5,15.2,41.6c0.2,13.4-4.7,26.6-12.1,37.6c-1.7,3.1-5.6,2.9-8.6,3.4c-22.8,3.4-46.9-1.3-66.6-13.4
		c-25.4-15.2-43.5-42.1-47.6-71.4C21.1,115.7,26.4,91.1,39,71C51,51.9,69.4,36.9,90.7,29.5 M94.1,61.1C82.3,73,72.4,87.5,68.8,104
		c-2.1,7.5-1.5,15.3-1.3,23c0.9,7.6,3.1,15,6.2,21.9c-9.7-2.2-14.3-11.9-18.4-20c-3.8,20.3-2.8,42.9,9.3,60.5
		c9.6,14.2,25.9,22.3,42.3,25.7c10,1.8,20.1,2.7,30.2,2.4c2-4.6,3.2-9.5,3.9-14.5c1.8-14.9,0.2-30.5-6.6-44.1
		c-1.1,8.8-2.6,17.7-5.6,26.1c-0.8,1.8-2.1,5-4.6,3.7c-8.7-5-15.6-12.6-21.2-20.9c-9.6-14.3-13.9-31.7-13.9-48.8
		c-0.4-22.9,6.2-45.1,14.8-66.1C100.2,54.9,97.2,58.2,94.1,61.1z"/>
</g>
<g id="_x23_4fd7cdff">
	<path class="st2" d="M153.3,28.3c3.6,0.3,7,1.9,10.3,3.2c18.8,7.9,34.9,21.8,45.9,38.9c5.5,8.4,9.2,17.9,12.3,27.5
		c5.5,21.1,4.1,43.8-3.9,64.1c-6.9,16.3-17.7,31.1-31.7,42c-9.3,6.5-19.1,12.6-30.1,15.9c2.7-3.3,6-5.9,9.1-8.8
		c6.7-7,12.3-15.3,15.5-24.5c2.2-6.3,2.9-13.1,3.6-19.7c-0.7-12.8-2.4-25.8-7.4-37.7c-3.9-10.2-9.3-19.8-15.1-29
		c-6.3-9.7-11.6-20.4-13.9-31.9c-0.3-6.1-1.8-12.3-0.7-18.4C147.7,42.5,149.1,34.7,153.3,28.3z"/>
</g>
</svg>
